qtOgitor/res/icons/scale.svg

<?xml version="1.0" encoding="UTF-8" standalone="no"?>
<!-- Created with Inkscape (http://www.inkscape.org/) -->
<svg
   xmlns:dc="http://purl.org/dc/elements/1.1/"
   xmlns:cc="http://creativecommons.org/ns#"
   xmlns:rdf="http://www.w3.org/1999/02/22-rdf-syntax-ns#"
   xmlns:svg="http://www.w3.org/2000/svg"
   xmlns="http://www.w3.org/2000/svg"
   xmlns:sodipodi="http://sodipodi.sourceforge.net/DTD/sodipodi-0.dtd"
   xmlns:inkscape="http://www.inkscape.org/namespaces/inkscape"
   version="1.0"
   width="34pt"
   height="34pt"
   viewBox="0 0 34 34"
   id="svg2"
   sodipodi:version="0.32"
   inkscape:version="0.46"
   sodipodi:docname="scale.svg"
   inkscape:output_extension="org.inkscape.output.svg.inkscape">
  <metadata
     id="metadata15">
    <rdf:RDF>
      <cc:Work
         rdf:about="">
        <dc:format>image/svg+xml</dc:format>
        <dc:type
           rdf:resource="http://purl.org/dc/dcmitype/StillImage" />
      </cc:Work>
    </rdf:RDF>
  </metadata>
  <sodipodi:namedview
     inkscape:window-height="667"
     inkscape:window-width="955"
     inkscape:pageshadow="2"
     inkscape:pageopacity="0.0"
     guidetolerance="10.0"
     gridtolerance="10.0"
     objecttolerance="10.0"
     borderopacity="1.0"
     bordercolor="#666666"
     pagecolor="#ffffff"
     id="base"
     showgrid="false"
     inkscape:zoom="5.4352941"
     inkscape:cx="8.3219243"
     inkscape:cy="10.320373"
     inkscape:window-x="44"
     inkscape:window-y="0"
     inkscape:current-layer="svg2" />
  <defs
     id="defs20">
    <inkscape:perspective
       sodipodi:type="inkscape:persp3d"
       inkscape:vp_x="0 : 21.25 : 1"
       inkscape:vp_y="0 : 1000 : 0"
       inkscape:vp_z="42.5 : 21.25 : 1"
       inkscape:persp3d-origin="21.25 : 14.166667 : 1"
       id="perspective17" />
  </defs>
  <g
     id="#393a3eff"
     transform="matrix(1.2,0,0,1.2,-3.1982685,-3.9696964)">
    <path
       style="opacity:1;fill:none;stroke:#000000;stroke-width:1.33333337;stroke-miterlimit:4;stroke-dasharray:none;stroke-opacity:1"
       d="M 9,9 C 14.333333,9 19.666667,9 25,9 C 25,14.333333 25,19.666667 25,25 C 23,25 21,25 19,25 C 19.080591,24.695079 9.069644,15.38785 9,15.075851 C 9,13.12416 9,10.951691 9,9 z"
       id="path5"
       sodipodi:nodetypes="cccccc" />
  </g>
  <g
     id="#c54b4bff"
     transform="matrix(1.1253372,0,0,1.1336263,-2.5761618,-2.2675034)">
    <path
       style="opacity:1;fill:#c8c8c8;fill-opacity:1;stroke:#800000;stroke-width:1.33333337;stroke-miterlimit:4;stroke-dasharray:none;stroke-opacity:1"
       d="M 9,15 C 12.333333,15 15.666667,15 19,15 C 19,18.333333 19,21.666667 19,25 C 15.666667,25 12.333333,25 9,25 C 9,21.666667 9,18.333333 9,15 z"
       id="path14" />
  </g>
</svg>

<svg width="42.5" xmlns="http://www.w3.org/2000/svg" height="42.5" viewBox="0 0 34 34">
<g transform="matrix(1.2 0 0 1.2 -3.19827 -3.9697)">
<path fill="none" stroke="#000" stroke-width="1.333" d="m9,9c5.3333,0 10.6667,0 16,0 0,5.3333 0,10.6667 0,16-2,0-4,0-6,0 .0806-.3049-9.9304-9.6121-10-9.9241 0-1.9517 0-4.1242 0-6.0759z"/>
</g>
<g transform="matrix(1.12534 0 0 1.13363 -2.57616 -2.2675)">
<path fill="#c8c8c8" stroke="#800000" stroke-width="1.333" d="m9,15c3.3333,0 6.6667,0 10,0 0,3.3333 0,6.6667 0,10-3.3333,0-6.6667,0-10,0 0-3.3333 0-6.6667 0-10z"/>
</g>
</svg>
